packages/icons/svg/Instruction_Hygiene_Cleaned_64px.svg

<svg xmlns="http://www.w3.org/2000/svg" viewBox="0 0 64 64"><path d="M31.33 27.12a6.25 6.25 0 01-3.83-5.77v-3.66a8.93 8.93 0 004.58 4.23.84.84 0 00.38.08 1 1 0 00.38-1.92 7 7 0 01-3.9-4.08H30a2 2 0 002-2v-.5h2a2 2 0 002-2v-2a2 2 0 00-2-2h-2V7a2 2 0 00-2-2H10a2 2 0 00-2 2v7a2 2 0 002 2 5.51 5.51 0 015.5 5.41 6.25 6.25 0 01-3.83 5.71A9.23 9.23 0 006 35.65V57a2 2 0 002 2h27a2 2 0 002-2V35.65a9.23 9.23 0 00-5.67-8.53zM11 13.06V8h18v5h-2.5a2 2 0 00-2 2v5h-6.14A8.51 8.51 0 0011 13.06zm1.83 16.82A9.2 9.2 0 0018.45 22h6.1a9.2 9.2 0 005.62 7.88 6.24 6.24 0 013.6 4.12H9.23a6.24 6.24 0 013.6-4.12zM9 56V36h25v20zM58.5 29a2.5 2.5 0 01-2.5-2.5.5.5 0 00-1 0 2.5 2.5 0 01-2.5 2.5.5.5 0 000 1 2.5 2.5 0 012.5 2.5.5.5 0 001 0 2.5 2.5 0 012.5-2.5.5.5 0 000-1z"/><path d="M57.5 21a1 1 0 00-1-1 8.51 8.51 0 01-8.5-8.5 1 1 0 00-2 0 8.51 8.51 0 01-8.5 8.5 1 1 0 000 2 8.51 8.51 0 018.5 8.5 1 1 0 002 0 8.51 8.51 0 018.5-8.5 1 1 0 001-1zM47 26a10.59 10.59 0 00-5-5 10.59 10.59 0 005-5 10.59 10.59 0 005 5 10.59 10.59 0 00-5 5z"/></svg>

<svg xmlns="http://www.w3.org/2000/svg" viewBox="0 0 64 64"><defs></defs><g id="Icon"><path  d="M31.33,27.12a6.25,6.25,0,0,1-3.83-5.77V17.69a8.93,8.93,0,0,0,4.58,4.23.84.84,0,0,0,.38.08,1,1,0,0,0,.38-1.92A7,7,0,0,1,28.94,16H30a2,2,0,0,0,2-2v-.5h2a2,2,0,0,0,2-2v-2a2,2,0,0,0-2-2H32V7a2,2,0,0,0-2-2H10A2,2,0,0,0,8,7v7a2,2,0,0,0,2,2,5.51,5.51,0,0,1,5.5,5.41,6.25,6.25,0,0,1-3.83,5.71A9.23,9.23,0,0,0,6,35.65V57a2,2,0,0,0,2,2H35a2,2,0,0,0,2-2V35.65A9.23,9.23,0,0,0,31.33,27.12ZM11,13.06V8H29v5H26.5a2,2,0,0,0-2,2v5H18.36A8.51,8.51,0,0,0,11,13.06Zm1.83,16.82A9.2,9.2,0,0,0,18.45,22h6.1a9.2,9.2,0,0,0,5.62,7.88A6.24,6.24,0,0,1,33.77,34H9.23A6.24,6.24,0,0,1,12.83,29.88ZM9,56V36H34V56Z"/><path  d="M58.5,29A2.5,2.5,0,0,1,56,26.5a.5.5,0,0,0-1,0A2.5,2.5,0,0,1,52.5,29a.5.5,0,0,0,0,1A2.5,2.5,0,0,1,55,32.5a.5.5,0,0,0,1,0A2.5,2.5,0,0,1,58.5,30a.5.5,0,0,0,0-1Z"/><path  d="M57.5,21a1,1,0,0,0-1-1A8.51,8.51,0,0,1,48,11.5a1,1,0,0,0-2,0A8.51,8.51,0,0,1,37.5,20a1,1,0,0,0,0,2A8.51,8.51,0,0,1,46,30.5a1,1,0,0,0,2,0A8.51,8.51,0,0,1,56.5,22,1,1,0,0,0,57.5,21ZM47,26a10.59,10.59,0,0,0-5-5,10.59,10.59,0,0,0,5-5,10.59,10.59,0,0,0,5,5A10.59,10.59,0,0,0,47,26Z"/></g></svg>
